assets/images/component/AppFooter/logo/kset.svg

<svg width="146" height="43" viewBox="0 0 146 43" fill="none" xmlns="http://www.w3.org/2000/svg">
<path d="M72.8063 42.654H7.27892C3.13825 42.654 0 39.6297 0 35.6428C0 26.0913 0 16.5399 0 6.98276C0 3.03574 3.14964 0 7.25044 0H138.356C142.457 0 145.607 3.03004 145.607 6.98276C145.607 16.5513 145.607 26.1198 145.607 35.6884C145.607 39.6012 142.446 42.6483 138.379 42.6483H72.8063V42.654ZM72.8063 39.6411H138.277C140.771 39.6411 142.491 37.9723 142.491 35.5517V7.10236C142.491 4.68175 140.766 3.01295 138.271 3.01295H7.33587C4.84122 3.01295 3.11547 4.68175 3.11547 7.10236C3.11547 16.5855 3.11547 26.0686 3.11547 35.5517C3.11547 37.9723 4.84122 39.6411 7.33587 39.6411H72.8063Z" fill="white"/>
<path d="M26.5469 34.9938V23.5001H32.9601C29.2238 18.9779 25.5729 14.5695 21.8765 10.0928C18.1459 14.5866 14.4495 19.0462 10.6848 23.5856H17.7074V35.0052C17.6561 35.0393 17.6276 35.0735 17.5992 35.0735C15.4064 35.0507 13.2136 35.1134 11.0322 34.9767C8.69701 34.8343 7.37564 33.3876 7.36425 31.1265C7.33577 24.4684 7.33008 17.8103 7.33008 11.1522C7.33008 8.9309 8.74827 7.54118 11.0436 7.43297C11.1974 7.42727 11.3568 7.42728 11.5106 7.42728H31.9747C34.5947 7.42728 36.2692 9.04482 36.2692 11.585C36.2692 18.1577 36.2692 24.7361 36.2692 31.3087C36.2692 33.3136 35.0276 34.6577 32.9601 34.8969C32.6639 34.9311 32.3734 34.9824 32.0773 34.9824C30.2661 34.9995 28.4378 34.9938 26.5469 34.9938Z" fill="white"/>
<path d="M79.9427 35.3696C77.9948 35.3696 76.0412 35.3525 74.0934 35.3753C71.6215 35.398 69.5939 33.4843 69.1496 31.3713C69.0699 30.9954 69.03 30.6024 68.9161 30.2379C68.1757 27.9084 69.9185 25.9833 71.7183 25.4023C74.0991 24.6391 76.0469 25.3966 77.7271 27.0085C78.1429 27.4072 78.5188 27.8685 78.815 28.3526C79.0884 28.7969 79.4016 29.0703 79.9427 29.0817C80.4952 29.0988 81.0533 29.1671 81.6058 29.1329C82.2665 29.0874 82.6139 28.7171 82.631 28.0792C82.6538 27.2021 82.443 26.382 81.8108 25.7099C77.693 21.3357 73.5751 16.9615 69.4572 12.5816C68.2611 11.3115 68.3579 9.52883 69.5483 8.24733C70.8469 6.84622 72.9201 6.91457 74.6174 7.59804C75.13 7.80877 75.6483 8.12772 76.0185 8.52071C80.6205 13.3562 85.2168 18.1975 89.7504 23.0899C90.3143 23.6937 90.5763 24.5879 90.8782 25.3796C91.5502 27.168 91.8635 29.0133 91.4022 30.9099C90.7813 33.4559 88.6797 35.1816 85.98 35.2784C83.9638 35.3468 81.9475 35.2898 79.9313 35.2898V35.3696H79.9427Z" fill="white"/>
<path d="M45.513 35.6257C43.9695 35.6029 42.8589 34.7315 41.976 33.5981C41.4122 32.8747 41.4748 31.9634 41.8906 31.1945C42.3577 30.3231 42.9386 29.4973 43.5651 28.7227C49.0442 21.9677 54.5518 15.2299 60.048 8.48637C61.0619 7.24474 62.6737 6.73214 64.0862 7.30169C65.6525 7.9339 66.746 9.16414 66.6435 10.8557C66.5979 11.5791 66.3302 12.2226 65.8746 12.7979C60.1733 19.9003 54.4835 27.0026 48.7822 34.105C47.9678 35.1074 46.8685 35.563 45.513 35.6257Z" fill="white"/>
<path d="M93.9312 7.07985H101.335V7.6437C101.335 15.7599 101.335 23.876 101.335 31.9922C101.335 33.7863 100.435 35.0735 98.8179 35.3298C97.9294 35.4722 96.9726 35.4209 96.0841 35.2615C94.9336 35.0564 94.1419 33.9743 94.0109 32.7041C93.9653 32.2371 93.9368 31.7701 93.9368 31.2974C93.9311 23.4489 93.9312 15.6004 93.9312 7.75762V7.07985Z" fill="white"/>
<path d="M126.413 13.9086C123.645 13.9086 120.877 13.9086 118.109 13.9086C116.269 13.9029 114.765 12.684 114.583 11.0437C114.355 8.99901 115.398 7.50678 117.346 7.0967C117.545 7.05683 117.761 7.05113 117.966 7.05113C123.605 7.05113 129.244 7.04544 134.888 7.05113C136.824 7.05113 138.208 8.46363 138.299 10.3318C138.413 12.553 136.579 13.9826 134.557 13.9314C131.846 13.8573 129.13 13.9086 126.413 13.9086Z" fill="white"/>
<path d="M122.95 15.7542H130.337V16.3067C130.337 21.3985 130.36 26.496 130.32 31.5935C130.314 32.3453 130.143 33.1427 129.847 33.8376C129.312 35.0792 127.985 35.6203 126.242 35.4722C125.946 35.4494 125.649 35.4266 125.365 35.3754C123.724 35.0621 122.933 34.0312 122.933 32.1802C122.927 26.8491 122.933 21.5181 122.933 16.1871C122.933 16.0504 122.944 15.9194 122.95 15.7542Z" fill="white"/>
<path d="M41.9591 27.0314C41.9477 26.7808 41.9306 26.6214 41.9306 26.4619C41.9306 21.1878 41.9192 15.9137 41.942 10.6396C41.942 10.1099 42.0274 9.55747 42.2097 9.06766C42.614 7.97411 43.4969 7.43303 44.6701 7.35899C45.5871 7.30203 46.5041 7.31342 47.3869 7.64377C48.714 8.13928 49.4772 9.16448 49.4772 10.5314C49.4829 12.9634 49.4886 15.4011 49.4658 17.8388C49.4658 18.0837 49.3747 18.3799 49.2152 18.5678C46.937 21.2561 44.6474 23.9331 42.3521 26.61C42.2552 26.7353 42.1356 26.8435 41.9591 27.0314Z" fill="white"/>
<path d="M55.002 29.7312C55.0532 29.6343 55.076 29.5831 55.1045 29.5432C56.779 27.527 58.4478 25.5108 60.1735 23.4319C60.3387 23.6027 60.4925 23.7508 60.6349 23.9046C62.2239 25.619 63.8642 27.2935 65.3736 29.0705C66.2564 30.1071 66.638 31.3886 66.319 32.7498C66.2279 33.1485 65.9659 33.5643 65.664 33.8547C65.0318 34.4642 64.3768 35.085 63.4485 35.3014C62.0815 35.6147 60.7943 35.3641 59.7976 34.4585C58.1402 32.9605 56.6081 31.3316 55.002 29.7312Z" fill="white"/>
<path d="M77.8299 7.26771C77.8982 7.26201 77.9666 7.25062 78.0349 7.25062C81.3554 7.24493 84.6759 7.22784 87.9965 7.23354C89.7849 7.23354 91.1518 8.24735 91.4423 9.85919C91.6188 10.8673 91.6074 11.9096 91.0664 12.8494C90.5879 13.6866 89.8532 14.1878 88.8451 14.2163C87.5066 14.2448 86.1682 14.2505 84.8297 14.222C84.6019 14.2163 84.3342 14.0169 84.1576 13.8404C82.2098 11.8754 80.2847 9.89335 78.3368 7.92839C78.1488 7.74043 77.8925 7.61514 77.6704 7.45566C77.7217 7.39301 77.7786 7.33036 77.8299 7.26771Z" fill="white"/>
<path d="M103.517 13.823V7.06805C104.223 7.06805 104.895 7.05666 105.573 7.06805C107.167 7.09083 108.774 7.04527 110.363 7.17058C111.752 7.27879 112.516 8.19007 112.595 9.52283C112.624 10.0753 112.692 10.6278 112.681 11.1802C112.652 12.4959 111.707 13.4926 110.232 13.692C109.394 13.8059 108.54 13.8059 107.686 13.8116C106.313 13.8344 104.946 13.823 103.517 13.823Z" fill="white"/>
<path d="M103.648 17.1151C105.869 17.1151 108.062 17.0239 110.243 17.1435C111.793 17.229 112.379 17.8498 112.624 19.342C112.755 20.1223 112.761 20.9539 112.653 21.7399C112.47 22.9872 111.593 23.682 109.936 23.7561C107.857 23.8472 105.767 23.7789 103.648 23.7789V17.1151Z" fill="white"/>
<path d="M103.642 34.9196V28.1418C104.331 28.1418 105.003 28.1361 105.675 28.1418C107.225 28.1646 108.774 28.1475 110.312 28.2444C111.935 28.3469 112.744 29.2354 112.789 30.8017C112.806 31.3086 112.829 31.8155 112.755 32.311C112.55 33.6836 111.246 34.8284 109.753 34.8797C107.771 34.948 105.789 34.9366 103.807 34.9594C103.767 34.9651 103.716 34.9366 103.642 34.9196Z" fill="white"/>
</svg>

<svg width="146" height="43" fill="none" xmlns="http://www.w3.org/2000/svg"><path d="M72.806 42.654H7.28C3.139 42.654 0 39.63 0 35.643V6.983C0 3.036 3.15 0 7.25 0h131.106c4.101 0 7.251 3.03 7.251 6.983v28.705c0 3.913-3.161 6.96-7.228 6.96H72.806v.006Zm0-3.013h65.471c2.494 0 4.214-1.669 4.214-4.09V7.103c0-2.42-1.725-4.09-4.22-4.09H7.336c-2.495.001-4.22 1.67-4.22 4.09v28.45c0 2.42 1.725 4.09 4.22 4.09h65.47Z" fill="#fff"/><path d="M26.547 34.994V23.5h6.413c-3.736-4.522-7.387-8.93-11.084-13.407-3.73 4.494-7.427 8.953-11.191 13.493h7.022v11.42c-.05.033-.08.068-.108.068-2.193-.023-4.385.04-6.567-.097-2.335-.143-3.656-1.59-3.668-3.85a4669.65 4669.65 0 0 1-.034-19.975c0-2.221 1.418-3.61 3.714-3.719.153-.006.313-.006.467-.006h20.464c2.62 0 4.294 1.618 4.294 4.158v19.724c0 2.005-1.241 3.349-3.309 3.588-.296.034-.587.085-.883.085-1.81.017-3.64.012-5.53.012Zm53.396.376c-1.948 0-3.902-.017-5.85.005-2.472.023-4.5-1.89-4.943-4.004-.08-.376-.12-.769-.234-1.133-.74-2.33 1.002-4.255 2.802-4.836 2.381-.763 4.329-.005 6.01 1.607.415.398.79.86 1.087 1.344.273.444.587.717 1.128.729.552.017 1.11.085 1.663.05.66-.045 1.008-.415 1.025-1.053.023-.877-.188-1.697-.82-2.37-4.118-4.373-8.236-8.747-12.354-13.127-1.196-1.27-1.1-3.053.091-4.335 1.299-1.4 3.372-1.332 5.07-.649.512.21 1.03.53 1.4.923 4.603 4.835 9.199 9.677 13.732 14.569.564.604.826 1.498 1.128 2.29.672 1.788.986 3.633.524 5.53-.62 2.546-2.722 4.272-5.422 4.368-2.016.069-4.032.012-6.049.012v.08h.012Zm-34.43.256c-1.544-.023-2.654-.895-3.537-2.028-.564-.723-.501-1.635-.085-2.403.467-.872 1.048-1.698 1.674-2.472 5.48-6.755 10.987-13.493 16.483-20.237 1.014-1.241 2.626-1.754 4.038-1.184 1.567.632 2.66 1.862 2.558 3.554-.046.723-.314 1.367-.77 1.942-5.7 7.102-11.39 14.205-17.092 21.307-.814 1.002-1.913 1.458-3.269 1.52ZM93.931 7.08h7.404v24.912c0 1.794-.9 3.082-2.517 3.338-.889.142-1.845.09-2.734-.069-1.15-.205-1.942-1.287-2.073-2.557a14.439 14.439 0 0 1-.074-1.407c-.006-7.848-.006-15.697-.006-23.54V7.08Zm32.482 6.829h-8.304c-1.84-.006-3.344-1.225-3.526-2.865-.228-2.045.815-3.537 2.763-3.947.199-.04.415-.046.62-.046 5.639 0 11.278-.006 16.922 0 1.936 0 3.32 1.413 3.411 3.28.114 2.222-1.72 3.652-3.742 3.6-2.711-.074-5.427-.022-8.144-.022Zm-3.463 1.845h7.387v.553c0 5.091.023 10.189-.017 15.287a5.989 5.989 0 0 1-.473 2.244c-.535 1.241-1.862 1.782-3.605 1.634-.296-.023-.593-.045-.877-.097-1.641-.313-2.432-1.344-2.432-3.195-.006-5.33 0-10.662 0-15.993 0-.137.011-.268.017-.433ZM41.96 27.031c-.012-.25-.03-.41-.03-.57 0-5.273-.01-10.547.012-15.821 0-.53.085-1.083.268-1.572.404-1.094 1.287-1.635 2.46-1.709.917-.057 1.834-.046 2.717.285 1.327.495 2.09 1.52 2.09 2.887.006 2.432.012 4.87-.011 7.308 0 .245-.091.54-.25.729a1825.777 1825.777 0 0 1-6.864 8.042c-.097.125-.216.233-.393.421Zm13.042 2.7c.051-.097.074-.148.102-.188 1.675-2.016 3.344-4.032 5.07-6.111.165.17.319.319.46.473 1.59 1.714 3.23 3.389 4.74 5.165.882 1.037 1.264 2.319.945 3.68-.091.398-.353.814-.655 1.105-.632.61-1.287 1.23-2.215 1.446-1.367.314-2.655.063-3.651-.843-1.658-1.497-3.19-3.126-4.796-4.727ZM77.83 7.268c.068-.006.137-.017.205-.017 3.32-.006 6.64-.023 9.962-.017 1.788 0 3.155 1.013 3.445 2.625.177 1.008.165 2.05-.376 2.99-.478.838-1.213 1.339-2.22 1.367a94.3 94.3 0 0 1-4.016.006c-.228-.006-.496-.205-.672-.382-1.948-1.965-3.873-3.947-5.821-5.912-.188-.188-.445-.313-.667-.472.052-.063.109-.126.16-.188Zm25.687 6.555V7.068c.706 0 1.378-.011 2.056 0 1.594.023 3.201-.023 4.79.103 1.389.108 2.153 1.02 2.232 2.352.029.552.097 1.105.086 1.657-.029 1.316-.974 2.313-2.449 2.512-.838.114-1.692.114-2.546.12-1.373.022-2.74.011-4.169.011Zm.131 3.292c2.221 0 4.414-.091 6.595.029 1.55.085 2.136.706 2.381 2.198.131.78.137 1.612.029 2.398-.183 1.247-1.06 1.942-2.717 2.016-2.079.091-4.169.023-6.288.023v-6.664Zm-.006 17.805v-6.778c.689 0 1.361-.006 2.033 0 1.55.023 3.099.006 4.637.102 1.623.103 2.432.991 2.477 2.558.017.507.04 1.014-.034 1.509-.205 1.373-1.509 2.517-3.002 2.569-1.982.068-3.964.057-5.946.08-.04.005-.091-.023-.165-.04Z" fill="#fff"/></svg>
